images/svg/about/tesla.svg

<svg width="129" height="17" viewBox="0 0 129 17" fill="none" xmlns="http://www.w3.org/2000/svg">
<path fill-rule="evenodd" clip-rule="evenodd" d="M3.35449 3.42818C1.65427 3.05249 0.367615 1.54972 0 0.0469613L21 0V0.0469613C20.6324 1.54972 19.3917 2.95856 17.6455 3.42818H12.407L12.1313 3.5221V17H8.86871V3.5221L8.593 3.42818H3.35449ZM32.4307 3.41873H44.9481C46.7098 3.09091 48.0079 1.49862 48.3324 0H29C29.3709 1.49862 30.669 3.04408 32.4307 3.41873ZM125.616 3.41873H113.098C111.383 3.04408 110.085 1.49862 109.714 0H129C128.629 1.49862 127.377 3.09091 125.616 3.41873ZM110.224 17V6.7438H128.583V17H125.338V10.1625H113.469V17H110.224ZM100.349 17C101.972 16.2975 102.853 15.0799 103.223 13.6749H88.6198V0.046832H85.3282V17H100.349ZM72.579 3.3719H60.9889L61.0352 6.7438H76.0561V17H56.8164C57.6045 15.3609 59.1808 14.0964 61.0352 13.5813H72.8109V10.0689H57.79V0.046832H76.1488C75.7779 1.49862 74.3408 2.85675 72.579 3.3719ZM44.9481 10.1157H32.4307C30.669 9.74105 29.3709 8.19559 29 6.69697H48.3324C48.0079 8.19559 46.7098 9.78788 44.9481 10.1157ZM32.4307 17H44.9481C46.7098 16.6722 48.0079 15.0799 48.3324 13.5813H29C29.3709 15.0799 30.669 16.6722 32.4307 17Z" fill="white"/>
</svg>

<svg width="129" height="17" fill="none" xmlns="http://www.w3.org/2000/svg"><path fill-rule="evenodd" clip-rule="evenodd" d="M3.354 3.428C1.654 3.052.368 1.55 0 .047L21 0v.047c-.368 1.503-1.608 2.912-3.355 3.381h-5.238l-.276.094V17H8.87V3.522l-.276-.094H3.354zm29.077-.01h12.517c1.762-.327 3.06-1.92 3.384-3.418H29c.37 1.499 1.669 3.044 3.43 3.419zm93.185 0h-12.518c-1.715-.374-3.013-1.92-3.384-3.418H129c-.371 1.499-1.623 3.09-3.384 3.419zM110.224 17V6.744h18.359V17h-3.245v-6.838h-11.869V17h-3.245zm-9.875 0c1.623-.703 2.504-1.92 2.874-3.325H88.62V.047h-3.292V17h15.021zM72.579 3.372h-11.59l.046 3.372h15.021V17h-19.24c.788-1.64 2.365-2.904 4.22-3.419H72.81V10.07H57.79V.047h18.359c-.371 1.452-1.808 2.81-3.57 3.325zm-27.63 6.744H32.43C30.669 9.74 29.37 8.196 29 6.697h19.332c-.324 1.499-1.622 3.09-3.384 3.419zM32.43 17h12.517c1.762-.328 3.06-1.92 3.384-3.419H29c.37 1.499 1.669 3.091 3.43 3.419z" fill="#fff"/></svg>
